_includes/social-icons/webtoon-logo.svg

<path style=" stroke:none;fill-rule:nonzero;fill:rgb(30.196078%,96.862745%,21.960784%);fill-opacity:1;" d="M 15.023438 15.261719 C 15.71875 15.261719 16.035156 14.855469 16.035156 14.210938 C 16.035156 13.65625 15.730469 13.199219 15.054688 13.199219 C 14.472656 13.199219 14.140625 13.601562 14.140625 14.214844 C 14.140625 14.757812 14.460938 15.261719 15.023438 15.261719 Z M 10.136719 15.445312 C 10.898438 15.445312 11.246094 15.003906 11.246094 14.292969 C 11.246094 13.6875 10.910156 13.183594 10.164062 13.183594 C 9.527344 13.183594 9.164062 13.628906 9.164062 14.300781 C 9.164062 14.894531 9.515625 15.445312 10.136719 15.445312 Z M 24 10.199219 L 20.851562 10.230469 L 21.679688 0.542969 L 1.957031 3.605469 L 3.644531 9.851562 L 0 9.851562 L 3.734375 21.339844 L 12.445312 20.058594 L 12.445312 23.453125 L 22.558594 18.8125 Z M 14.894531 6.605469 C 14.894531 6.558594 14.933594 6.515625 14.984375 6.511719 L 16.863281 6.386719 L 17.308594 6.359375 C 17.832031 6.324219 18.941406 6.421875 18.941406 7.59375 C 18.941406 8.425781 18.324219 8.777344 18.324219 8.777344 C 18.324219 8.777344 19.074219 8.96875 19.03125 9.871094 C 19.03125 11.472656 17.089844 11.261719 17.089844 11.261719 L 16.863281 11.253906 L 14.953125 11.199219 C 14.90625 11.199219 14.867188 11.160156 14.867188 11.109375 Z M 11.222656 6.851562 C 11.222656 6.804688 11.261719 6.761719 11.308594 6.757812 L 14.371094 6.554688 C 14.394531 6.554688 14.417969 6.5625 14.433594 6.574219 C 14.449219 6.589844 14.460938 6.613281 14.460938 6.636719 L 14.460938 7.578125 C 14.460938 7.628906 14.421875 7.667969 14.371094 7.671875 L 12.472656 7.75 C 12.425781 7.753906 12.386719 7.792969 12.386719 7.839844 L 12.378906 8.234375 C 12.378906 8.257812 12.390625 8.277344 12.40625 8.292969 C 12.421875 8.308594 12.441406 8.320312 12.464844 8.316406 L 14.113281 8.253906 C 14.136719 8.25 14.15625 8.257812 14.171875 8.273438 C 14.191406 8.292969 14.199219 8.3125 14.199219 8.335938 L 14.179688 9.347656 C 14.175781 9.394531 14.136719 9.433594 14.089844 9.433594 L 12.460938 9.433594 C 12.410156 9.433594 12.371094 9.472656 12.371094 9.523438 L 12.371094 9.9375 C 12.371094 9.984375 12.410156 10.027344 12.460938 10.027344 L 14.328125 10.058594 C 14.378906 10.0625 14.417969 10.101562 14.414062 10.148438 L 14.414062 11.101562 C 14.414062 11.121094 14.40625 11.144531 14.390625 11.160156 C 14.375 11.175781 14.351562 11.183594 14.328125 11.183594 L 11.265625 11.0625 C 11.21875 11.058594 11.179688 11.019531 11.179688 10.972656 Z M 5.210938 7.160156 L 6.1875 7.097656 C 6.234375 7.09375 6.28125 7.128906 6.289062 7.179688 L 6.75 9.382812 C 6.757812 9.429688 6.777344 9.429688 6.789062 9.382812 L 7.363281 7.101562 C 7.378906 7.054688 7.421875 7.019531 7.472656 7.011719 L 8.394531 6.949219 C 8.441406 6.949219 8.488281 6.980469 8.503906 7.027344 L 9.066406 9.371094 C 9.078125 9.417969 9.09375 9.417969 9.105469 9.371094 L 9.707031 6.945312 C 9.722656 6.898438 9.765625 6.863281 9.816406 6.855469 L 10.8125 6.789062 C 10.859375 6.785156 10.886719 6.820312 10.875 6.867188 L 9.785156 10.972656 C 9.773438 11.023438 9.726562 11.054688 9.675781 11.054688 L 8.554688 11.023438 C 8.503906 11.019531 8.460938 10.988281 8.445312 10.9375 L 7.910156 8.972656 C 7.898438 8.925781 7.878906 8.925781 7.867188 8.972656 L 7.34375 10.90625 C 7.328125 10.953125 7.285156 10.988281 7.234375 10.988281 L 6.125 10.957031 C 6.074219 10.953125 6.03125 10.917969 6.019531 10.871094 L 5.144531 7.253906 C 5.132812 7.203125 5.164062 7.164062 5.210938 7.160156 Z M 4.921875 16.785156 L 4.921875 13.222656 C 4.921875 13.175781 4.882812 13.136719 4.835938 13.136719 L 3.585938 13.105469 C 3.535156 13.105469 3.496094 13.066406 3.492188 13.015625 L 3.445312 11.890625 C 3.445312 11.871094 3.453125 11.847656 3.46875 11.832031 C 3.484375 11.816406 3.507812 11.804688 3.53125 11.804688 L 7.578125 11.902344 C 7.625 11.902344 7.664062 11.941406 7.660156 11.988281 L 7.640625 13.078125 C 7.636719 13.125 7.597656 13.164062 7.550781 13.164062 L 6.410156 13.171875 C 6.363281 13.171875 6.324219 13.210938 6.324219 13.257812 L 6.324219 16.703125 C 6.324219 16.753906 6.285156 16.796875 6.238281 16.796875 L 5.011719 16.867188 C 4.988281 16.871094 4.964844 16.863281 4.949219 16.847656 C 4.929688 16.832031 4.921875 16.808594 4.921875 16.785156 Z M 7.757812 14.40625 C 7.757812 12.488281 9.078125 11.925781 10.171875 11.925781 C 11.269531 11.925781 12.511719 12.652344 12.511719 14.238281 C 12.511719 16.140625 11.128906 16.722656 10.097656 16.722656 C 9.0625 16.722656 7.757812 15.996094 7.757812 14.40625 Z M 12.894531 14.289062 C 12.894531 12.546875 14.0625 12.054688 15.058594 12.054688 C 16.054688 12.054688 17.1875 12.71875 17.1875 14.160156 C 17.1875 15.890625 15.929688 16.421875 14.988281 16.421875 C 14.050781 16.421875 12.894531 15.738281 12.894531 14.289062 Z M 20.15625 16.003906 C 20.101562 16.003906 20.050781 15.980469 20.015625 15.9375 L 18.828125 14.308594 C 18.800781 14.269531 18.777344 14.277344 18.777344 14.324219 L 18.777344 15.996094 C 18.777344 16.042969 18.738281 16.085938 18.691406 16.085938 L 17.636719 16.148438 C 17.617188 16.148438 17.59375 16.140625 17.578125 16.125 C 17.558594 16.109375 17.550781 16.089844 17.550781 16.066406 L 17.589844 12.222656 C 17.589844 12.175781 17.628906 12.136719 17.679688 12.140625 L 18.558594 12.160156 C 18.613281 12.164062 18.664062 12.191406 18.695312 12.234375 L 19.988281 14.136719 C 20.015625 14.175781 20.039062 14.167969 20.039062 14.121094 L 20.070312 12.277344 C 20.070312 12.253906 20.082031 12.230469 20.097656 12.214844 C 20.117188 12.199219 20.136719 12.191406 20.160156 12.191406 L 21.125 12.21875 C 21.171875 12.21875 21.210938 12.261719 21.207031 12.308594 L 21.070312 15.863281 C 21.066406 15.914062 21.027344 15.953125 20.976562 15.957031 Z M 16.257812 8.230469 L 16.980469 8.214844 C 16.980469 8.214844 17.453125 8.234375 17.453125 7.78125 C 17.453125 7.425781 17.039062 7.453125 17.039062 7.453125 L 16.257812 7.460938 C 16.210938 7.460938 16.171875 7.5 16.171875 7.546875 L 16.171875 8.144531 C 16.171875 8.167969 16.179688 8.191406 16.195312 8.207031 C 16.210938 8.222656 16.234375 8.230469 16.257812 8.230469 Z M 16.230469 10.191406 L 17.21875 10.191406 C 17.242188 10.191406 17.570312 10.140625 17.570312 9.785156 C 17.570312 9.492188 17.339844 9.386719 17.128906 9.390625 L 16.230469 9.417969 C 16.179688 9.417969 16.140625 9.460938 16.144531 9.507812 L 16.144531 10.105469 C 16.144531 10.128906 16.152344 10.148438 16.167969 10.164062 C 16.183594 10.183594 16.207031 10.191406 16.230469 10.191406 Z M 16.230469 10.191406 "/>

<path d="M15.023 15.26c.695 0 1.014-.404 1.014-1.051 0-.551-.308-1.01-.984-1.01-.58 0-.912.404-.912 1.016 0 .543.32 1.045.882 1.045zM10.135 15.447c.764 0 1.113-.443 1.113-1.154 0-.604-.338-1.109-1.082-1.109-.637 0-1.002.445-1.002 1.115 0 .597.352 1.148.971 1.148zM24 10.201l-3.15.029.83-9.686L1.958 3.605l1.686 6.248H0l3.734 11.488 8.713-1.283v3.396l10.113-4.641L24 10.201zm-9.104-3.594c0-.049.039-.092.088-.094l1.879-.125.446-.029c.524-.035 1.634.063 1.634 1.236 0 .83-.619 1.184-.619 1.184s.75.189.707 1.092c0 1.602-1.943 1.389-1.943 1.389l-.225-.006-1.908-.053a.089.089 0 0 1-.086-.09l.027-4.504zm-3.675.243c0-.047.039-.09.088-.092l3.064-.203a.08.08 0 0 1 .087.08v.943c0 .049-.039.09-.087.092l-1.9.08a.094.094 0 0 0-.088.09l-.005.394a.083.083 0 0 0 .086.084l1.646-.066a.082.082 0 0 1 .086.084l-.02 1.012a.089.089 0 0 1-.089.086h-1.63a.089.089 0 0 0-.088.088v.416c0 .047.039.088.088.088l1.87.033a.09.09 0 0 1 .087.09v.951a.084.084 0 0 1-.087.084l-3.063-.123a.09.09 0 0 1-.087-.09l.042-4.121zm-6.01.312l.975-.064a.101.101 0 0 1 .105.08l.458 2.205c.01.047.027.047.039 0l.576-2.281a.132.132 0 0 1 .108-.09l.921-.061a.108.108 0 0 1 .109.078l.564 2.342c.012.047.029.047.041 0l.6-2.424a.131.131 0 0 1 .108-.092l.996-.064c.048-.004.077.031.065.078l-1.09 4.104a.113.113 0 0 1-.109.082l-1.121-.031a.12.12 0 0 1-.109-.086l-.535-1.965c-.012-.047-.033-.047-.045 0l-.522 1.934a.12.12 0 0 1-.11.082l-1.109-.031a.123.123 0 0 1-.108-.088l-.873-3.618c-.011-.047.019-.088.066-.09zm-.288 9.623v-3.561a.089.089 0 0 0-.087-.088l-1.252-.029a.095.095 0 0 1-.091-.09l-.046-1.125a.082.082 0 0 1 .083-.086l4.047.096c.048 0 .087.041.085.088l-.022 1.088a.093.093 0 0 1-.089.088l-1.139.004a.09.09 0 0 0-.087.088v3.447c0 .049-.039.09-.087.092l-1.227.07a.08.08 0 0 1-.088-.082zm2.834-2.379c0-1.918 1.321-2.482 2.416-2.482s2.339.73 2.339 2.316c0 1.9-1.383 2.482-2.416 2.482-1.033.001-2.339-.724-2.339-2.316zm5.139-.115c0-1.746 1.166-2.238 2.162-2.238s2.129.664 2.129 2.107c0 1.729-1.259 2.26-2.198 2.26s-2.093-.68-2.093-2.129zm7.259 1.711a.175.175 0 0 1-.139-.064l-1.187-1.631c-.029-.039-.053-.031-.053.018v1.67c0 .047-.039.09-.086.092l-1.052.061a.082.082 0 0 1-.087-.082l.039-3.842c0-.047.039-.086.088-.084l.881.02a.2.2 0 0 1 .137.074l1.293 1.902c.027.041.051.033.051-.014l.032-1.846a.087.087 0 0 1 .089-.086l.963.029c.047 0 .085.041.083.09l-.138 3.555a.097.097 0 0 1-.091.092l-.823.046zM16.258 8.23l.724-.014s.47.018.47-.434c0-.357-.411-.33-.411-.33l-.782.008a.09.09 0 0 0-.088.088v.598a.083.083 0 0 0 .087.084zM16.229 10.191h.99c.024 0 .35-.051.35-.404 0-.293-.229-.402-.441-.398l-.898.029a.089.089 0 0 0-.087.09v.596a.086.086 0 0 0 .086.087z" fill="#4df738" style="--darkreader-inline-fill: #f4dc41;" data-darkreader-inline-fill=""></path>
